images/header icon/help.svg

<svg width="25" height="25" viewBox="0 0 25 25" fill="none" xmlns="http://www.w3.org/2000/svg">
<path d="M12.5394 24.1777C5.94106 24.1777 0.592041 18.8367 0.592041 12.2482C0.592041 5.65981 5.94106 0.318817 12.5394 0.318817C19.1378 0.318817 24.4868 5.65981 24.4868 12.2482C24.4759 18.8322 19.1333 24.1668 12.5394 24.1777ZM12.5394 1.67861C6.69318 1.67861 1.95388 6.4108 1.95388 12.2482C1.95388 18.0857 6.69318 22.8179 12.5394 22.8179C18.3856 22.8179 23.1249 18.0857 23.1249 12.2482C23.1177 6.4138 18.3826 1.68585 12.5394 1.67861Z" fill="#212A2F"/>
<path fill-rule="evenodd" clip-rule="evenodd" d="M12.6775 16.8926C13.0986 16.8899 13.4796 17.1411 13.6426 17.5287C13.8055 17.9163 13.7182 18.3638 13.4215 18.6621C13.1247 18.9603 12.6771 19.0503 12.2879 18.89C11.8986 18.7298 11.6447 18.3509 11.6447 17.9305C11.6482 17.3613 12.1075 16.8997 12.6775 16.8926Z" fill="#212A2F"/>
<path fill-rule="evenodd" clip-rule="evenodd" d="M13.3421 15.5065V14.8102C13.336 14.5265 13.3806 14.244 13.4737 13.9759C13.559 13.7473 13.674 13.5308 13.8158 13.3321C13.9641 13.1203 14.1315 12.9224 14.3158 12.7409C14.5 12.5504 14.6908 12.3731 14.8816 12.1891C15.0724 12.0052 15.2631 11.8015 15.4474 11.5979C15.6347 11.3971 15.8001 11.1769 15.9408 10.941C16.2832 10.3941 16.4592 9.75967 16.4474 9.1148C16.4571 8.59354 16.3632 8.07554 16.171 7.59078C15.9965 7.1667 15.7316 6.78563 15.3947 6.47404C15.0474 6.1612 14.64 5.92207 14.1974 5.77114C13.7034 5.60605 13.1854 5.52392 12.6645 5.52809C12.0871 5.52128 11.5143 5.63076 10.9802 5.84997C10.4901 6.05561 10.0519 6.3675 9.69736 6.76307C9.34302 7.16317 9.07237 7.62997 8.9013 8.13601C8.70831 8.68185 8.61906 9.25886 8.63814 9.8374C8.63814 10.2582 8.97982 10.5994 9.4013 10.5994C9.82278 10.5994 10.1645 10.2582 10.1645 9.8374C10.1598 9.44507 10.2085 9.05392 10.3092 8.67467C10.3942 8.3357 10.5488 8.01805 10.7631 7.74187C10.9731 7.46858 11.2403 7.24439 11.546 7.08496C11.8943 6.92485 12.2746 6.84622 12.6579 6.85504C13.2224 6.82532 13.7751 7.02427 14.1908 7.40684C14.597 7.82031 14.8319 8.37162 14.8487 8.95057C14.877 9.33412 14.8232 9.71931 14.6908 10.0805C14.5592 10.3893 14.3793 10.6753 14.1579 10.9279C13.9341 11.1875 13.6946 11.4332 13.4408 11.6636C13.1804 11.9029 12.9344 12.1574 12.7039 12.4256C12.4675 12.7124 12.2685 13.0281 12.1118 13.365C11.9416 13.7711 11.8501 14.2058 11.8421 14.646V15.4999C11.8421 15.9208 12.1838 16.2619 12.6052 16.2619C13.0267 16.2619 13.3684 15.9208 13.3684 15.4999" fill="#212A2F"/>
</svg>

<svg width="25" height="25" fill="none" xmlns="http://www.w3.org/2000/svg"><path d="M12.54 24.178c-6.6 0-11.949-5.341-11.949-11.93C.592 5.66 5.942.318 12.539.318c6.599 0 11.948 5.342 11.948 11.93-.011 6.584-5.354 11.919-11.948 11.93zm0-22.5c-5.847 0-10.586 4.733-10.586 10.57 0 5.838 4.74 10.57 10.585 10.57 5.847 0 10.586-4.732 10.586-10.57-.007-5.834-4.742-10.562-10.586-10.57z" fill="#212A2F"/><path fill-rule="evenodd" clip-rule="evenodd" d="M12.678 16.893a1.04 1.04 0 01.743 1.77 1.04 1.04 0 01-1.776-.733 1.044 1.044 0 011.033-1.037zm.664-1.386v-.697a2.387 2.387 0 01.132-.834c.085-.229.2-.445.342-.644.148-.212.316-.41.5-.591.184-.19.375-.368.566-.552.19-.184.381-.387.565-.591.188-.2.353-.421.494-.657a3.327 3.327 0 00.506-1.826 3.936 3.936 0 00-.276-1.524 3.158 3.158 0 00-.776-1.117 3.455 3.455 0 00-1.198-.703 4.717 4.717 0 00-1.532-.243 4.302 4.302 0 00-1.685.322c-.49.206-.928.518-1.283.913a4.01 4.01 0 00-.796 1.373 4.645 4.645 0 00-.263 1.701.763.763 0 001.527 0 4.329 4.329 0 01.144-1.162c.085-.34.24-.657.454-.933.21-.273.477-.498.783-.657.348-.16.729-.239 1.112-.23a2.1 2.1 0 011.533.552c.406.413.64.965.658 1.544a2.72 2.72 0 01-.158 1.13 3.173 3.173 0 01-.533.847c-.224.26-.463.505-.717.736-.26.239-.507.493-.737.762a4.384 4.384 0 00-.592.939c-.17.406-.262.84-.27 1.281v.854a.763.763 0 001.526 0" fill="#212A2F"/></svg>
